icons/fill-new-meida-video-camera.svg

<svg xmlns="http://www.w3.org/2000/svg" width="32px" height="32px" viewBox="0 0 32 32" version="1.1">
    <title>fill-new-meida-video-camera</title>
    <g id="fill-new-meida-video-camera" stroke-width="1" fill-rule="evenodd">
        <path d="M23,6 C23.5522847,6 24,6.44771525 24,7 L24,11 L28.5527864,8.7236068 C29.0467649,8.47661755 29.6474379,8.6768419 29.8944272,9.17082039 C29.9638549,9.30967583 30,9.46278889 30,9.61803399 L30,22.381966 C30,22.9342508 29.5522847,23.381966 29,23.381966 C28.8447549,23.381966 28.6916418,23.3458209 28.5527864,23.2763932 L24,21 L24,25 C24,25.5522847 23.5522847,26 23,26 L3,26 C2.44771525,26 2,25.5522847 2,25 L2,7 C2,6.44771525 2.44771525,6 3,6 L23,6 Z M11,10 L7,10 C6.44771525,10 6,10.4477153 6,11 C6,11.5522847 6.44771525,12 7,12 L11,12 C11.5522847,12 12,11.5522847 12,11 C12,10.4477153 11.5522847,10 11,10 Z" id="&#24418;&#29366;" />
    </g>
</svg>

<svg xmlns="http://www.w3.org/2000/svg" viewBox="0 0 32 32"><path fill="currentColor" d="M23 6a1 1 0 0 1 1 1v4l4.553-2.276A1 1 0 0 1 30 9.618v12.764a1 1 0 0 1-1.447.894L24 21v4a1 1 0 0 1-1 1H3a1 1 0 0 1-1-1V7a1 1 0 0 1 1-1zm-12 4H7a1 1 0 0 0 0 2h4a1 1 0 0 0 0-2"/></svg>
